icons/crop-2-fill.svg

<svg viewBox="0 0 24 24" fill="currentColor" xmlns="http://www.w3.org/2000/svg"><path d="M17.5858 5L20.1421 2.44365L21.5563 3.85786L19 6.41421V17H22V19H19V22H17V7H9V5H17.5858ZM15 17V19H6C5.44772 19 5 18.5523 5 18V7H2V5H5V2H7V17H15ZM9 9H15V15H9V9Z"/></svg>

<svg xmlns="http://www.w3.org/2000/svg" viewBox="0 0 24 24">
    <g>
        <path fill="none" d="M0 0h24v24H0z"/>
        <path d="M17.586 5l2.556-2.556 1.414 1.414L19 6.414V17h3v2h-3v3h-2V7H9V5h8.586zM15 17v2H6a1 1 0 0 1-1-1V7H2V5h3V2h2v15h8zM9 9h6v6H9V9z"/>
    </g>
</svg>
